X: 1201
T: Magic Foot
B: ralph
B: to learn
M:4/4
Q: 1/4=100
K:Gmajor
V:1 
G2Bd ddBd|ddBd cAFA|G2Bd ddBd|cAFA G3F|
 G2Bd ddBd|ddBd cAFA|G2Bd ddBd|cAFA GBdc|
 |:BGdG BdBG|EGcG FAdc|BGdG BdBG|1 AddB G2dc:|2 AddB G2 gb||
 ad~d2 Add(d|d2)~d2 Adgb|ad~d2 Adde|dBAF G2gb|
 ad~d2 Add(d|d2)~d2 Adgb|ad~d2 Adde|d2(d2 d)BAF|
 |:G2Bd ~d2BG|FGFD A,DFA|GBdB FGFD|A,DFA G3F:|
% abcbook-tune_id 63454d7b32710f28c200109d
% abcbook-link-0 https://www.youtube.com/watch?v=7h6jbopHREw
% abcbook-link-title-0 Magic foot

% abcbook-boost 0
% abcbook-tablature 
% abcbook-transpose 
% abcbook-lastupdated 1666789106164
% abcbook-soundfonts 
% abcbook-repeats 3


